Papirus/16x16/mimetypes/application-x.allegorithmic.spp.svg

<svg width="16" height="16" version="1.1" xmlns="http://www.w3.org/2000/svg">
 <path d="M 2.8008,1 C 2.3576,1 2,1.3576 2,1.8008 V 15.199 C 2,15.642 2.3576,16 2.8008,16 H 13.199 C 13.642,16 14,15.642 14,15.199 V 6 L 10,5 9,1 Z" style="fill:#e4e4e4"/>
 <path d="M 14,6 9,1 V 5.1992 C 9,5.6424 9.358,6 9.801,6 Z" style="fill:#fafafa"/>
 <path d="m7.9999969 5.7139035-3.9999878 2.0000994-9.1e-6 1.9048936 5.7142245 1.9048495-1.7142333 0.857153-1.7026775-0.851366v-0.382723l-2.2972931-0.765836-2.06e-5 1.905022 4.0000015 2.0001 3.9999725-2.0001v-1.904893l-5.7142225-1.9048489 1.7142397-0.8571547 1.7142815 0.8571979 1.82e-5 0.380996 2.2857091 0.7619489-1.9e-5 -1.9047641z" style="fill:#e2222f"/>
</svg>

<svg xmlns="http://www.w3.org/2000/svg" width="16" height="16" version="1.1">
 <path style="fill:#e4e4e4" d="M 2.8008,1 C 2.3576,1 2,1.3576 2,1.8008 V 15.199 C 2,15.642 2.3576,16 2.8008,16 H 13.199 C 13.642,16 14,15.642 14,15.199 V 6 L 10,5 9,1 Z"/>
 <path style="fill:#fafafa" d="M 14,6 9,1 V 5.1992 C 9,5.6424 9.358,6 9.801,6 Z"/>
 <path style="fill:#e2222f" d="M 8,5.714 4,7.7141 V 9.619 L 9.7142,11.524 8,12.381 6.2973,11.53 V 11.147 L 4,10.381 V 12.286 L 8,14.286 12,12.286 V 10.381 L 6.2858,8.4764 8,7.6192 9.7143,8.4764 V 8.8574 L 12,9.6193 V 7.7146 Z"/>
</svg>
